X:1
T:Title
%%score { ( 1 3 ) | ( 2 4 ) }
L:1/8
M:4/4
K:G
V:1 treble nm="Grand Piano"
V:3 treble 
V:2 bass 
V:4 bass 
V:1
 z4 z2[Q:1/4=100] D2 | [B,DG]2 [DG]2 [DB][CDA][B,DG][A,DF] | [B,DG]6 [B,D]2 | %3
 [CE]2 [CEG]2 [CAc][CGB][CFA][CEG] | [DFA]6 D2 | [DB]2 [DB]2 [Ec][DB][CA][B,G] | %6
 E2 [Ec]2 [DB]2 [EA]2 | G2 G2 BAGF |[M:3/4] G6 |[M:1/4] D2 |[M:4/4] A6 z2 | z2 [Ac]4 z2 | %12
 [B,EG]2 [B,FA]2 [B,GB]2 [G^c]2 | [Fd]6 [D,D]2 | [B,DG]2 [B,DG]2 [DB][CDA][B,DG][B,DF] | %15
 [CE]2 [CEc]2 [DB]2 [CEA]2 | [B,DG]2 [B,DG]2 [DB]2 [CDA]2 |[M:3/4] [B,DG]6 |] %18
V:2
 z4 z2 D,2 | G,,2 B,,2 D,D,D,D, | G,,6 G,,2 | C,2 C,2 A,,A,,A,,A,, | D,6 D,2 | %5
 [G,,G,]2 [G,,G,]2 [G,,G,][G,,G,][G,,G,][G,,G,] | [C,G,C]2 [A,,A,]2 [B,,^G,]2 [C,A,]2 | %7
 [D,B,D]2 [D,B,D]2 [D,D][D,CD][D,B,D][D,B,D] |[M:3/4] [G,B,D]6 |[M:1/4] z2 | %10
[M:4/4] F6[K:treble] z2 | B2[K:bass] D,2 D,2 D,2 | E,2 E,2 E,2 [A,,A,]2 | A,6 z2 | %14
 G,,2 G,,2 G,,G,,G,,G,, | C,2 A,,2 B,,2 C,2 | D,2 D,2 D,2 D,2 |[M:3/4] G,,6 |] %18
V:3
 x8 | x8 | x8 | x8 | x8 | x8 | x8 | x8 |[M:3/4] x6 |[M:1/4] x2 |[M:4/4] z2 D2 D2 B2 | %11
 d2 D2 D2 [CFA]2 | x8 | x8 | x8 | x8 | x8 |[M:3/4] x6 |] %18
V:4
 x8 | x8 | x8 | x8 | x8 | x8 | x8 | x8 |[M:3/4] x6 |[M:1/4] x2 |[M:4/4] z2 D,2 D,2[K:treble] G2 | %11
 x2[K:bass] x6 | x8 | D,2 D,2 D,C,B,,A,, | x8 | x8 | x8 |[M:3/4] x6 |] %18

